X:1
T:Toureendarby (Polka), The
R:polka
M:2/4
L:1/8
O:Trad. (27.10.2015/NS)
K:Edor
|: "Em" BE    FE | BE        FE | "D" D>E FA |      FE         FA  |
   "Em" BE    FE | BE        FE | "D" D>E FA | "Em" FE         E2 :|
|: "Em" ef/e/ dB | ef/e/ "G" dB | "D" AF  dF |      AB/c/ "Hm" d2  |
   "C"  ef/e/ dB | ef/e/     dB | "D" AF  dF | "Em" FE         E2 :|
